icons/cockroachdb-dark.svg

<svg width="256" height="256" viewBox="0 0 256 256" fill="none" xmlns="http://www.w3.org/2000/svg">
<rect width="256" height="256" rx="60" fill="#282828"/>
<path d="M170.523 158.696C174.989 140.682 174.223 121.761 168.315 104.171C162.407 86.5798 151.604 71.0543 137.184 59.4288C150.352 51.8297 165.282 47.8451 180.471 47.8761C186.23 47.873 191.976 48.4397 197.624 49.5683L200 39.9846C193.574 38.6653 187.031 38.0004 180.471 38.0002C162.061 37.9645 144.027 43.2286 128.508 53.1679C112.987 43.2301 94.9539 37.9663 76.5439 38.0002C69.9793 38.0005 63.4316 38.6653 57 39.9846L59.3759 49.5683C65.0292 48.4389 70.7797 47.8722 76.5439 47.8761C91.7367 47.8443 106.67 51.8232 119.847 59.4134C108.062 68.9125 98.6573 81.0472 92.3829 94.8475C86.1084 108.647 83.1392 123.729 83.7128 138.888C84.2863 154.045 88.3866 168.858 95.6858 182.141C102.985 195.423 113.28 206.808 125.748 215.383L128.538 217.305L131.313 215.383C150.851 201.929 164.808 181.765 170.554 158.696H170.523ZM123.587 201.276C110.747 190.147 101.429 175.494 96.7804 159.12C92.1315 142.746 92.3542 125.365 97.4214 109.116C102.388 117.397 108.55 124.894 115.709 131.36C118.192 133.607 120.177 136.352 121.535 139.418C122.892 142.485 123.591 145.803 123.587 149.158V201.276ZM128.508 129.129C121.911 124.219 116.039 118.398 111.064 111.839C107.879 107.638 106.154 102.504 106.154 97.2254C106.154 91.9459 107.879 86.8125 111.064 82.6109C116.034 75.9978 121.918 70.1292 128.538 65.182C135.232 70.1957 141.174 76.1482 146.182 82.8571C149.262 86.9888 150.928 92.0109 150.928 97.171C150.928 102.332 149.262 107.354 146.182 111.485C141.155 118.179 135.204 124.12 128.508 129.129ZM133.413 201.276V149.158C133.411 145.802 134.112 142.482 135.472 139.416C136.833 136.35 138.82 133.605 141.307 131.36C148.464 124.897 154.622 117.4 159.579 109.116C162.221 117.579 163.56 126.398 163.549 135.267C163.536 147.795 160.837 160.173 155.638 171.562C150.438 182.952 142.858 193.085 133.413 201.276Z" fill="url(#gradient)"/>
<linearGradient id="gradient" x1="128.5" y1="38" x2="128.5" y2="217.305" gradientUnits="userSpaceOnUse">
<stop stop-color="#6833FF"/>
<stop offset="0.25" stop-color="#17EBED"/>
<stop offset="0.75" stop-color="#4A74FA"/>
<stop offset="1" stop-color="#0A54FF"/>
</linearGradient>
</svg>

<svg xmlns="http://www.w3.org/2000/svg" width="256" height="256" fill="none"><rect width="256" height="256" fill="#282828" rx="60"/><path fill="url(#gradient)" d="M170.523 158.696a97.55 97.55 0 0 0-2.208-54.525 97.23 97.23 0 0 0-31.131-44.742 86.25 86.25 0 0 1 43.287-11.553 87.3 87.3 0 0 1 17.153 1.692L200 39.985A97 97 0 0 0 180.471 38a96 96 0 0 0-51.963 15.168A96.03 96.03 0 0 0 76.544 38 97.3 97.3 0 0 0 57 39.985l2.376 9.583a87.3 87.3 0 0 1 17.168-1.692 86.4 86.4 0 0 1 43.303 11.537 97.15 97.15 0 0 0-27.464 35.435 97.5 97.5 0 0 0-8.67 44.04 97.5 97.5 0 0 0 11.973 43.253 97.1 97.1 0 0 0 30.062 33.242l2.79 1.922 2.775-1.922c19.538-13.454 33.495-33.618 39.241-56.687zm-46.936 42.58A87.35 87.35 0 0 1 96.78 159.12a87.6 87.6 0 0 1 .641-50.004 97.7 97.7 0 0 0 18.288 22.244 23.95 23.95 0 0 1 7.878 17.798zm4.921-72.147a87.4 87.4 0 0 1-17.444-17.29 24.2 24.2 0 0 1-4.91-14.614c0-5.28 1.725-10.412 4.91-14.614a87 87 0 0 1 17.474-17.429 87.4 87.4 0 0 1 17.644 17.675 23.95 23.95 0 0 1 0 28.628 88.1 88.1 0 0 1-17.674 17.644m4.905 72.147v-52.118a24 24 0 0 1 2.059-9.742 23.9 23.9 0 0 1 5.835-8.056 97.3 97.3 0 0 0 18.272-22.244 87.4 87.4 0 0 1 3.97 26.151 87.6 87.6 0 0 1-7.911 36.295 87.3 87.3 0 0 1-22.225 29.714"/><linearGradient id="gradient" x1="128.5" x2="128.5" y1="38" y2="217.305" gradientUnits="userSpaceOnUse"><stop stop-color="#6833FF"/><stop offset=".25" stop-color="#17EBED"/><stop offset=".75" stop-color="#4A74FA"/><stop offset="1" stop-color="#0A54FF"/></linearGradient></svg>
